X:1
T:Fare Thee Well, My Own True Love
M:4/4
L:1/8
K:C
 G3 G A3 G|E-D C2 D2 CD| E3 E c2 BB| A6 G2| A3 B c2 A2|A-G E2 D2 CD|\
 E E2 DE-F G2| A8|

